icons/smiley-grin-24.svg

<svg width="24" height="24" viewBox="0 0 24 24" fill="none" xmlns="http://www.w3.org/2000/svg">
<path d="M12 1C18.0751 1 23 5.92487 23 12C23 18.0751 18.0751 23 12 23C5.92487 23 1 18.0751 1 12C1 5.92487 5.92487 1 12 1ZM12 2.5C6.75329 2.5 2.5 6.75329 2.5 12C2.5 17.2467 6.75329 21.5 12 21.5C17.2467 21.5 21.5 17.2467 21.5 12C21.5 6.75329 17.2467 2.5 12 2.5ZM16.5 14.25C16.7308 14.25 16.9487 14.3563 17.0908 14.5381C17.2329 14.7201 17.2835 14.9577 17.2275 15.1816C16.9346 16.3533 15.487 19.125 12 19.125C8.51301 19.125 7.06538 16.3533 6.77246 15.1816C6.71654 14.9577 6.7671 14.7201 6.90918 14.5381C7.05132 14.3563 7.26921 14.25 7.5 14.25H16.5ZM8.63672 15.75C9.16825 16.6253 10.2147 17.625 12 17.625C13.7853 17.625 14.8317 16.6253 15.3633 15.75H8.63672ZM8 8.25C9.29443 8.25 10.1222 8.91342 10.5996 9.5498C10.8337 9.86189 10.9877 10.1706 11.083 10.3994C11.131 10.5146 11.1653 10.6125 11.1885 10.6846C11.2001 10.7207 11.2094 10.7509 11.2158 10.7734C11.219 10.7845 11.2217 10.7943 11.2236 10.8018C11.2246 10.8053 11.2249 10.8088 11.2256 10.8115C11.2259 10.8128 11.2263 10.8143 11.2266 10.8154L11.2275 10.8164V10.8174C11.2276 10.8177 11.2261 10.8184 10.5977 10.9756L11.2275 10.8184C11.3279 11.2201 11.0834 11.6271 10.6816 11.7275C10.2814 11.8275 9.87582 11.5856 9.77344 11.1865C9.77322 11.1857 9.77308 11.1838 9.77246 11.1816C9.77052 11.1748 9.76662 11.1618 9.76074 11.1436C9.74876 11.1063 9.72828 11.0477 9.69824 10.9756C9.63736 10.8295 9.54108 10.6379 9.40039 10.4502C9.12776 10.0867 8.70535 9.75 8 9.75C7.29465 9.75 6.87224 10.0867 6.59961 10.4502C6.45892 10.6379 6.36264 10.8295 6.30176 10.9756C6.27172 11.0477 6.25124 11.1063 6.23926 11.1436C6.23338 11.1618 6.22948 11.1748 6.22754 11.1816H6.22656C6.12612 11.5834 5.72013 11.8278 5.31836 11.7275C4.9166 11.6271 4.67215 11.2201 4.77246 10.8184L5.40234 10.9756C4.77551 10.8188 4.77239 10.8177 4.77246 10.8174V10.8164L4.77344 10.8154C4.77371 10.8143 4.77408 10.8128 4.77441 10.8115C4.77511 10.8088 4.77541 10.8053 4.77637 10.8018C4.77835 10.7943 4.78104 10.7845 4.78418 10.7734C4.79057 10.7509 4.79991 10.7207 4.81152 10.6846C4.83467 10.6125 4.86899 10.5146 4.91699 10.3994C5.01233 10.1706 5.16632 9.86189 5.40039 9.5498C5.87779 8.91342 6.70558 8.25 8 8.25ZM16 8.25C17.2944 8.25 18.1222 8.91342 18.5996 9.5498C18.8337 9.86189 18.9877 10.1706 19.083 10.3994C19.131 10.5146 19.1653 10.6125 19.1885 10.6846C19.2001 10.7207 19.2094 10.7509 19.2158 10.7734C19.219 10.7845 19.2217 10.7943 19.2236 10.8018C19.2246 10.8053 19.2249 10.8088 19.2256 10.8115C19.2259 10.8128 19.2263 10.8143 19.2266 10.8154L19.2275 10.8164V10.8174C19.2276 10.8177 19.2261 10.8184 18.5977 10.9756L19.2275 10.8184C19.3279 11.2201 19.0834 11.6271 18.6816 11.7275C18.2814 11.8275 17.8758 11.5856 17.7734 11.1865C17.7732 11.1857 17.7731 11.1838 17.7725 11.1816C17.7705 11.1748 17.7666 11.1618 17.7607 11.1436C17.7488 11.1063 17.7283 11.0477 17.6982 10.9756C17.6374 10.8295 17.5411 10.6379 17.4004 10.4502C17.1278 10.0867 16.7054 9.75 16 9.75C15.2947 9.75 14.8722 10.0867 14.5996 10.4502C14.4589 10.6379 14.3626 10.8295 14.3018 10.9756C14.2717 11.0477 14.2512 11.1063 14.2393 11.1436C14.2334 11.1618 14.2295 11.1748 14.2275 11.1816H14.2266C14.1261 11.5834 13.7201 11.8278 13.3184 11.7275C12.9166 11.6271 12.6722 11.2201 12.7725 10.8184L13.4023 10.9756C12.7755 10.8188 12.7724 10.8177 12.7725 10.8174V10.8164L12.7734 10.8154C12.7737 10.8143 12.7741 10.8128 12.7744 10.8115C12.7751 10.8088 12.7754 10.8053 12.7764 10.8018C12.7783 10.7943 12.781 10.7845 12.7842 10.7734C12.7906 10.7509 12.7999 10.7207 12.8115 10.6846C12.8347 10.6125 12.869 10.5146 12.917 10.3994C13.0123 10.1706 13.1663 9.86189 13.4004 9.5498C13.8778 8.91342 14.7056 8.25 16 8.25ZM6.22754 11.1826V11.1836H6.22656V11.1816C6.22762 11.1819 6.22755 11.1826 6.22754 11.1826ZM14.2275 11.1826V11.1836H14.2266V11.1816C14.2276 11.1819 14.2275 11.1826 14.2275 11.1826Z" fill="black"/>
</svg>

<svg xmlns="http://www.w3.org/2000/svg" width="24" height="24" viewBox="0 0 24 24"><path d="M12 1c6.075 0 11 4.925 11 11s-4.925 11-11 11S1 18.075 1 12 5.925 1 12 1Zm0 1.5A9.5 9.5 0 0 0 2.5 12a9.5 9.5 0 0 0 9.5 9.5 9.5 9.5 0 0 0 9.5-9.5A9.5 9.5 0 0 0 12 2.5Zm4.5 11.75a.75.75 0 0 1 .727.932c-.292 1.171-1.74 3.943-5.227 3.943s-4.935-2.772-5.228-3.943a.75.75 0 0 1 .728-.932h9Zm-7.863 1.5c.531.875 1.578 1.875 3.363 1.875s2.832-1 3.363-1.875H8.637ZM8 8.25c1.294 0 2.122.663 2.6 1.3a3.98 3.98 0 0 1 .588 1.135l.028.088.008.029.002.01.001.003v.002c.001.001-.001.001-.629.159l.629-.158a.749.749 0 0 1-1.454.369l-.001-.005a2.128 2.128 0 0 0-.074-.206 2.454 2.454 0 0 0-.298-.526c-.272-.363-.695-.7-1.4-.7s-1.128.337-1.4.7a2.454 2.454 0 0 0-.372.732h-.001a.75.75 0 0 1-1.455-.364l.63.158-.63-.159v-.001l.001-.001.001-.003.002-.01.008-.029.028-.088A3.98 3.98 0 0 1 5.4 9.55c.478-.637 1.306-1.3 2.6-1.3Zm8 0c1.294 0 2.122.663 2.6 1.3a3.98 3.98 0 0 1 .589 1.135l.027.088.008.029.002.01.001.003v.002c.001.001-.001.001-.629.159l.629-.158a.749.749 0 0 1-1.454.369v-.005l-.012-.038a2.454 2.454 0 0 0-.361-.694c-.272-.363-.695-.7-1.4-.7s-1.128.337-1.4.7a2.454 2.454 0 0 0-.373.732.75.75 0 0 1-1.454-.364l.629.158c-.627-.157-.63-.158-.629-.159v-.002l.001-.003.002-.01.008-.029.028-.088A3.98 3.98 0 0 1 13.4 9.55c.478-.637 1.306-1.3 2.6-1.3Zm-9.772 2.933v.001h-.001v-.002l.001.001Zm7.999 0v.001-.002.001Z"/></svg>
